Firefly/Assets/ColorGrading/LUTMaybe.cube
LUT_3D_SIZE 16
0.000000 0.000000 0.000000
0.135925 -0.000000 -0.000000
0.263397 -0.000000 -0.000000
0.378656 -0.000001 -0.000001
0.487190 -0.000001 -0.000001
0.592787 -0.000001 -0.000001
0.697619 -0.000001 -0.000001
0.802263 -0.000001 -0.000001
0.906034 -0.000002 -0.000002
1.008490 -0.000002 -0.000002
1.116534 -0.000002 -0.000002
1.228190 -0.000002 -0.000002
1.339846 -0.000002 -0.000002
1.451501 -0.000003 -0.000003
1.563156 -0.000003 -0.000003
1.674812 -0.000003 -0.000003
-0.000001 0.123500 -0.000001
0.135924 0.123500 -0.000001
0.263397 0.119659 -0.000001
0.378655 0.114680 -0.000001
0.487189 0.110662 -0.000002
0.592786 0.107718 -0.000002
0.697618 0.105640 -0.000002
0.802263 0.104130 -0.000002
0.906034 0.102899 -0.000002
1.008489 0.101809 -0.000002
1.116534 0.101444 -0.000003
1.228189 0.101444 -0.000003
1.339845 0.101444 -0.000003
1.451501 0.101444 -0.000003
1.563156 0.101444 -0.000003
1.674811 0.101444 -0.000004
-0.000001 0.239319 -0.000001
0.131697 0.239319 -0.000002
0.263396 0.239319 -0.000002
0.378655 0.229361 -0.000002
0.487188 0.221326 -0.000002
0.592785 0.215438 -0.000002
0.697617 0.211281 -0.000003
0.802262 0.208263 -0.000003
0.906033 0.205801 -0.000003
1.008488 0.203621 -0.000003
1.116533 0.202892 -0.000003
1.228189 0.202892 -0.000003
1.339844 0.202892 -0.000004
1.451500 0.202892 -0.000004
1.563155 0.202892 -0.000004
1.674810 0.202892 -0.000004
-0.000002 0.344042 -0.000002
0.126216 0.344042 -0.000002
0.252435 0.344042 -0.000003
0.378654 0.344041 -0.000003
0.487188 0.331990 -0.000003
0.592785 0.323158 -0.000003
0.697617 0.316922 -0.000003
0.802261 0.312395 -0.000003
0.906032 0.308703 -0.000004
1.008488 0.305432 -0.000004
1.116532 0.304339 -0.000004
1.228188 0.304339 -0.000004
1.339844 0.304339 -0.000004
1.451499 0.304339 -0.000005
1.563154 0.304339 -0.000005
1.674810 0.304339 -0.000005
-0.000003 0.442654 -0.000003
0.121794 0.442654 -0.000003
0.243592 0.442654 -0.000003
0.365389 0.442654 -0.000003
0.487187 0.442654 -0.000004
0.592784 0.430878 -0.000004
0.697616 0.422564 -0.000004
0.802261 0.416528 -0.000004
0.906032 0.411604 -0.000004
1.008487 0.407243 -0.000004
1.116532 0.405786 -0.000005
1.228188 0.405786 -0.000005
1.339843 0.405787 -0.000005
1.451499 0.405787 -0.000005
1.563154 0.405787 -0.000005
1.674809 0.405787 -0.000006
-0.000003 0.538598 -0.000003
0.118553 0.538598 -0.000004
0.237111 0.538598 -0.000004
0.355669 0.538598 -0.000004
0.474226 0.538598 -0.000004
0.592783 0.538597 -0.000004
0.697616 0.528205 -0.000005
0.802260 0.520660 -0.000005
0.906031 0.514505 -0.000005
1.008487 0.509054 -0.000005
1.116531 0.507232 -0.000005
1.228187 0.507233 -0.000005
1.339843 0.507234 -0.000006
1.451498 0.507234 -0.000006
1.563153 0.507234 -0.000006
1.674809 0.507235 -0.000006
-0.000004 0.633848 -0.000004
0.116265 0.633847 -0.000004
0.232536 0.633847 -0.000004
0.348805 0.633847 -0.000005
0.465075 0.633847 -0.000005
0.581345 0.633847 -0.000005
0.697615 0.633846 -0.000005
0.802259 0.624793 -0.000005
0.906030 0.617407 -0.000005
1.008486 0.610865 -0.000006
1.116530 0.608679 -0.000006
1.228186 0.608680 -0.000006
1.339842 0.608681 -0.000006
1.451497 0.608682 -0.000006
1.563153 0.608682 -0.000007
1.674808 0.608682 -0.000007
-0.000004 0.728926 -0.000004
0.114604 0.728926 -0.000005
0.229214 0.728926 -0.000005
0.343823 0.728926 -0.000005
0.458432 0.728925 -0.000005
0.573041 0.728925 -0.000006
0.687650 0.728925 -0.000006
0.802259 0.728925 -0.000006
0.906030 0.720308 -0.000006
1.008485 0.712677 -0.000006
1.116530 0.710126 -0.000006
1.228186 0.710127 -0.000007
1.339841 0.710128 -0.000007
1.451497 0.710129 -0.000007
1.563152 0.710129 -0.000007
1.674807 0.710130 -0.000007
-0.000005 0.823211 -0.000005
0.113249 0.823211 -0.000005
0.226503 0.823211 -0.000005
0.339758 0.823211 -0.000006
0.453012 0.823211 -0.000006
0.566266 0.823210 -0.000006
0.679521 0.823210 -0.000006
0.792775 0.823210 -0.000006
0.906029 0.823210 -0.000007
1.008485 0.814488 -0.000007
1.116529 0.811573 -0.000007
1.228185 0.811575 -0.000007
1.339841 0.811576 -0.000007
1.451496 0.811576 -0.000008
1.563151 0.811577 -0.000008
1.674807 0.811577 -0.000008
-0.000006 0.916301 -0.000006
0.112048 0.916301 -0.000006
0.224103 0.916301 -0.000006
0.336157 0.916300 -0.000006
0.448212 0.916300 -0.000006
0.560266 0.916300 -0.000007
0.672321 0.916300 -0.000007
0.784375 0.916300 -0.000007
0.896430 0.916299 -0.000007
1.008484 0.916299 -0.000007
1.116529 0.913020 -0.000008
1.228185 0.913022 -0.000008
1.339840 0.913023 -0.000008
1.451496 0.913024 -0.000008
1.563151 0.913024 -0.000008
1.674806 0.913025 -0.000009
-0.000006 1.014469 -0.000006
0.111647 1.014469 -0.000006
0.223301 1.014469 -0.000007
0.334954 1.014468 -0.000007
0.446608 1.014468 -0.000007
0.558261 1.014468 -0.000007
0.669914 1.014468 -0.000007
0.781568 1.014468 -0.000008
0.893221 1.014467 -0.000008
1.004875 1.014467 -0.000008
1.116528 1.014467 -0.000008
1.228184 1.014469 -0.000008
1.339840 1.014470 -0.000009
1.451495 1.014471 -0.000009
1.563150 1.014472 -0.000009
1.674805 1.014472 -0.000009
-0.000007 1.115918 -0.000007
0.111646 1.115918 -0.000007
0.223300 1.115918 -0.000007
0.334954 1.115918 -0.000007
0.446608 1.115917 -0.000008
0.558261 1.115917 -0.000008
0.669915 1.115917 -0.000008
0.781569 1.115917 -0.000008
0.893222 1.115916 -0.000008
1.004876 1.115916 -0.000009
1.116530 1.115916 -0.000009
1.228183 1.115916 -0.000009
1.339839 1.115917 -0.000009
1.451494 1.115919 -0.000009
1.563150 1.115919 -0.000010
1.674805 1.115920 -0.000010
-0.000007 1.217367 -0.000007
0.111646 1.217367 -0.000008
0.223300 1.217367 -0.000008
0.334954 1.217366 -0.000008
0.446608 1.217366 -0.000008
0.558262 1.217366 -0.000008
0.669915 1.217366 -0.000009
0.781569 1.217366 -0.000009
0.893223 1.217365 -0.000009
1.004877 1.217365 -0.000009
1.116531 1.217365 -0.000010
1.228185 1.217365 -0.000010
1.339838 1.217365 -0.000010
1.451494 1.217366 -0.000010
1.563149 1.217367 -0.000010
1.674804 1.217367 -0.000011
-0.000008 1.318816 -0.000008
0.111645 1.318816 -0.000008
0.223300 1.318815 -0.000009
0.334954 1.318815 -0.000009
0.446608 1.318815 -0.000009
0.558262 1.318815 -0.000009
0.669915 1.318815 -0.000009
0.781569 1.318814 -0.000010
0.893223 1.318814 -0.000010
1.004877 1.318814 -0.000010
1.116531 1.318814 -0.000010
1.228185 1.318814 -0.000010
1.339839 1.318813 -0.000011
1.451493 1.318813 -0.000011
1.563148 1.318814 -0.000011
1.674803 1.318815 -0.000011
-0.000009 1.420264 -0.000009
0.111645 1.420264 -0.000009
0.223299 1.420264 -0.000009
0.334953 1.420264 -0.000009
0.446608 1.420264 -0.000010
0.558261 1.420263 -0.000010
0.669915 1.420263 -0.000010
0.781569 1.420263 -0.000010
0.893224 1.420263 -0.000010
1.004878 1.420263 -0.000011
1.116532 1.420262 -0.000011
1.228186 1.420262 -0.000011
1.339840 1.420262 -0.000011
1.451494 1.420262 -0.000011
1.563148 1.420262 -0.000012
1.674803 1.420262 -0.000012
-0.000009 1.521713 -0.000009
0.111644 1.521713 -0.000010
0.223299 1.521713 -0.000010
0.334953 1.521712 -0.000010
0.446607 1.521712 -0.000010
0.558261 1.521712 -0.000010
0.669915 1.521712 -0.000011
0.781569 1.521711 -0.000011
0.893224 1.521711 -0.000011
1.004878 1.521711 -0.000011
1.116532 1.521711 -0.000011
1.228186 1.521711 -0.000012
1.339840 1.521711 -0.000012
1.451494 1.521710 -0.000012
1.563148 1.521710 -0.000012
1.674802 1.521710 -0.000012
-0.000000 -0.000000 0.111608
0.135925 -0.000000 0.111608
0.263397 -0.000001 0.108137
0.378656 -0.000001 0.103637
0.487190 -0.000001 0.100006
0.592786 -0.000001 0.097346
0.697619 -0.000001 0.095467
0.802263 -0.000002 0.094103
0.906034 -0.000002 0.092991
1.008490 -0.000002 0.092005
1.116534 -0.000002 0.091676
1.228190 -0.000002 0.091676
1.339846 -0.000003 0.091676
1.451501 -0.000003 0.091676
1.563156 -0.000003 0.091676
1.674811 -0.000003 0.091676
-0.000001 0.123500 0.111607
0.137372 0.123257 0.109747
0.278493 0.119571 0.106062
0.406094 0.116239 0.102729
0.526251 0.113100 0.099590
0.644183 0.109773 0.096230
0.763770 0.105796 0.092167
0.876123 0.103706 0.090173
0.962113 0.108456 0.095482
1.008489 0.123498 0.111605
1.116533 0.123498 0.111605
1.228189 0.123498 0.111605
1.339845 0.123497 0.111605
1.451500 0.123497 0.111604
1.563156 0.123497 0.111604
1.674811 0.123497 0.111604
-0.000002 0.239319 0.108136
0.126065 0.243580 0.098426
0.267370 0.239897 0.094173
0.396550 0.228458 0.091079
0.518389 0.218792 0.088083
0.636811 0.210911 0.085113
0.754040 0.204457 0.082179
0.868938 0.199398 0.080120
0.959848 0.200612 0.087990
1.008488 0.212610 0.111605
1.116533 0.212096 0.111605
1.228189 0.212128 0.111604
1.339844 0.212152 0.111604
1.451500 0.212169 0.111604
1.563155 0.212183 0.111604
1.674810 0.212193 0.111604
-0.000002 0.344042 0.103635
0.114409 0.352968 0.086535
0.247200 0.349276 0.082770
0.385064 0.345413 0.079143
0.506985 0.331123 0.077134
0.625060 0.319939 0.075058
0.741674 0.311236 0.072931
0.857486 0.304195 0.070824
0.956868 0.301494 0.078532
1.008488 0.310389 0.111604
1.116532 0.309472 0.111604
1.228188 0.309529 0.111604
1.339844 0.309571 0.111604
1.451499 0.309602 0.111603
1.563154 0.309627 0.111603
1.674810 0.309645 0.111603
-0.000003 0.442654 0.100005
0.104537 0.455506 0.076712
0.230069 0.451914 0.073849
0.362124 0.448220 0.071065
0.495219 0.444620 0.068475
0.612911 0.430449 0.067072
0.729052 0.419676 0.065550
0.844352 0.411164 0.063989
0.953103 0.404837 0.067247
1.008487 0.410321 0.111604
1.116532 0.409036 0.111603
1.228188 0.409116 0.111603
1.339843 0.409175 0.111603
1.451499 0.409219 0.111603
1.563154 0.409253 0.111603
1.674809 0.409280 0.111602
-0.000003 0.538598 0.097343
0.096718 0.554546 0.069070
0.216569 0.551144 0.066883
0.344099 0.547649 0.064719
0.472970 0.544255 0.062686
0.601943 0.541004 0.060793
0.717606 0.528258 0.059695
0.832439 0.518335 0.058524
0.945820 0.509835 0.057365
1.008486 0.511046 0.111603
1.116531 0.509406 0.111603
1.228187 0.509509 0.111603
1.339843 0.509584 0.111602
1.451498 0.509640 0.111602
1.563153 0.509683 0.111602
1.674808 0.509717 0.111602
-0.000004 0.633848 0.095465
0.090445 0.652272 0.063007
0.206049 0.649082 0.061297
0.330165 0.645787 0.059579
0.455880 0.642588 0.057950
0.581829 0.639520 0.056422
0.707607 0.636591 0.054991
0.821983 0.625292 0.054100
0.934949 0.615668 0.053199
1.008486 0.612136 0.111602
1.116530 0.610149 0.111602
1.228186 0.610274 0.111602
1.339842 0.610365 0.111602
1.451497 0.610433 0.111602
1.563153 0.610485 0.111601
1.674808 0.610526 0.111601
-0.000005 0.728926 0.094100
0.085335 0.749364 0.058106
0.197689 0.746379 0.056739
0.319155 0.743278 0.055347
0.442433 0.740261 0.054017
0.566060 0.737361 0.052762
0.689599 0.734587 0.051579
0.812891 0.731936 0.050464
0.925455 0.721204 0.049755
1.008485 0.713423 0.111602
1.116530 0.711091 0.111602
1.228186 0.711237 0.111601
1.339841 0.711344 0.111601
1.451497 0.711424 0.111601
1.563152 0.711486 0.111601
1.674807 0.711534 0.111600
-0.000005 0.823211 0.092987
0.081145 0.845298 0.054108
0.190760 0.842508 0.052994
0.309972 0.839590 0.051846
0.431184 0.836742 0.050742
0.552846 0.833999 0.049693
0.674495 0.831369 0.048700
0.795957 0.828848 0.047760
0.917163 0.826435 0.046869
1.008484 0.814825 0.111601
1.116529 0.812150 0.111601
1.228185 0.812318 0.111601
1.339841 0.812440 0.111600
1.451496 0.812532 0.111600
1.563151 0.812603 0.111600
1.674807 0.812658 0.111600
-0.000006 0.916301 0.092002
0.077672 0.939752 0.050809
0.184838 0.937144 0.049885
0.302023 0.934396 0.048923
0.421376 0.931706 0.047993
0.541274 0.929108 0.047105
0.661225 0.926610 0.046259
0.781043 0.924212 0.045456
0.900652 0.921909 0.044691
1.008484 0.916299 0.111600
1.116529 0.913284 0.111600
1.228184 0.913473 0.111600
1.339840 0.913611 0.111600
1.451496 0.913714 0.111600
1.563151 0.913794 0.111599
1.674806 0.913857 0.111599
-0.000006 1.014469 0.091672
0.135919 1.014469 0.111601
0.233431 1.014469 0.111601
0.340604 1.014468 0.111601
0.450185 1.014468 0.111601
0.560653 1.014468 0.111601
0.671532 1.014468 0.111600
0.782630 1.014467 0.111600
0.893857 1.014467 0.111600
1.005165 1.014467 0.111600
1.116528 1.014467 0.111600
1.228184 1.014677 0.111599
1.339839 1.014831 0.111599
1.451495 1.014946 0.111599
1.563150 1.015035 0.111599
1.674805 1.015105 0.111599
-0.000007 1.115918 0.091671
0.135918 1.115918 0.111601
0.233466 1.115918 0.111601
0.340666 1.115917 0.111600
0.450273 1.115917 0.111600
0.560766 1.115917 0.111600
0.671669 1.115917 0.111600
0.782790 1.115917 0.111600
0.894040 1.115916 0.111599
1.005372 1.115916 0.111599
1.116759 1.115916 0.111599
1.228183 1.115916 0.111599
1.339839 1.116085 0.111599
1.451494 1.116212 0.111598
1.563150 1.116310 0.111598
1.674805 1.116387 0.111598
-0.000008 1.217367 0.091671
0.135918 1.217367 0.111600
0.233491 1.217367 0.111600
0.340712 1.217366 0.111600
0.450337 1.217366 0.111600
0.560848 1.217366 0.111599
0.671768 1.217366 0.111599
0.782907 1.217366 0.111599
0.894175 1.217365 0.111599
1.005524 1.217365 0.111599
1.116928 1.217365 0.111598
1.228369 1.217365 0.111598
1.339838 1.217365 0.111598
1.451494 1.217503 0.111598
1.563149 1.217610 0.111598
1.674804 1.217694 0.111597
-0.000008 1.318816 0.091670
0.135917 1.318815 0.111600
0.233510 1.318815 0.111599
0.340746 1.318815 0.111599
0.450385 1.318815 0.111599
0.560910 1.318815 0.111599
0.671843 1.318815 0.111599
0.782995 1.318814 0.111598
0.894276 1.318814 0.111598
1.005638 1.318814 0.111598
1.117054 1.318814 0.111598
1.228509 1.318814 0.111598
1.339991 1.318813 0.111597
1.451493 1.318813 0.111597
1.563148 1.318929 0.111597
1.674803 1.319019 0.111597
-0.000009 1.420264 0.091670
0.135916 1.420264 0.111599
0.233525 1.420264 0.111599
0.340772 1.420264 0.111599
0.450422 1.420264 0.111598
0.560957 1.420263 0.111598
0.671900 1.420263 0.111598
0.783062 1.420263 0.111598
0.894353 1.420263 0.111598
1.005725 1.420262 0.111597
1.117152 1.420262 0.111597
1.228616 1.420262 0.111597
1.340108 1.420262 0.111597
1.451620 1.420262 0.111597
1.563148 1.420262 0.111596
1.674803 1.420359 0.111596
-0.000009 1.521713 0.091669
0.135916 1.521713 0.111598
0.233536 1.521712 0.111598
0.340793 1.521712 0.111598
0.450451 1.521712 0.111598
0.560994 1.521712 0.111598
0.671945 1.521712 0.111597
0.783115 1.521711 0.111597
0.894414 1.521711 0.111597
1.005793 1.521711 0.111597
1.117228 1.521711 0.111597
1.228700 1.521711 0.111596
1.340199 1.521710 0.111596
1.451719 1.521710 0.111596
1.563255 1.521710 0.111596
1.674802 1.521710 0.111596
-0.000000 -0.000000 0.216275
0.131698 -0.000000 0.216275
0.263397 -0.000001 0.216275
0.378656 -0.000001 0.207275
0.487190 -0.000001 0.200014
0.592786 -0.000001 0.194693
0.697619 -0.000001 0.190937
0.802263 -0.000002 0.188209
0.906034 -0.000002 0.185984
1.008489 -0.000002 0.184013
1.116534 -0.000002 0.183355
1.228190 -0.000002 0.183355
1.339846 -0.000003 0.183355
1.451501 -0.000003 0.183355
1.563156 -0.000003 0.183355
1.674811 -0.000003 0.183355
-0.000001 0.119659 0.216274
0.136344 0.122229 0.227620
0.277465 0.118544 0.223935
0.405133 0.115279 0.212853
0.525342 0.112194 0.203596
0.642644 0.109076 0.196069
0.762809 0.104910 0.189414
0.875504 0.102813 0.184478
0.961922 0.107820 0.184329
1.008489 0.123498 0.192137
1.116533 0.123498 0.191672
1.228189 0.123498 0.191701
1.339845 0.123497 0.191722
1.451500 0.123497 0.191738
1.563156 0.123497 0.191750
1.674811 0.123497 0.191760
-0.000002 0.239319 0.216274
0.125078 0.242535 0.216355
0.266200 0.238849 0.212669
0.393800 0.235516 0.209337
0.513956 0.232378 0.206199
0.630860 0.229325 0.203145
0.749338 0.225655 0.199321
0.866079 0.222390 0.196039
0.958843 0.225271 0.199914
1.008488 0.239317 0.216272
1.116533 0.239317 0.216271
1.228189 0.239317 0.216271
1.339844 0.239317 0.216271
1.451500 0.239317 0.216271
1.563155 0.239316 0.216271
1.674810 0.239316 0.216270
-0.000002 0.344042 0.207274
0.114106 0.351680 0.197973
0.256014 0.347627 0.202483
0.383614 0.344295 0.199151
0.504306 0.335437 0.196548
0.621604 0.328175 0.193889
0.738692 0.322003 0.190666
0.857801 0.316061 0.186254
0.956011 0.315389 0.191852
1.008487 0.326169 0.216271
1.116532 0.325754 0.216271
1.228188 0.325910 0.216271
1.339844 0.326023 0.216271
1.451499 0.326108 0.216270
1.563154 0.326172 0.216270
1.674809 0.326223 0.216270
-0.000003 0.442654 0.200013
0.103041 0.454741 0.181051
0.246421 0.450060 0.192890
0.367270 0.446937 0.189515
0.494344 0.443611 0.185714
0.612458 0.432913 0.182938
0.729785 0.424365 0.179915
0.847806 0.417007 0.176017
0.952271 0.413028 0.181777
1.008487 0.420359 0.216271
1.116531 0.419602 0.216270
1.228187 0.419886 0.216270
1.339843 0.420093 0.216270
1.451499 0.420247 0.216270
1.563154 0.420365 0.216270
1.674809 0.420458 0.216269
-0.000003 0.538598 0.194691
0.093679 0.554485 0.167019
0.236098 0.550139 0.182325
0.352274 0.547104 0.178706
0.475805 0.543784 0.174888
0.602385 0.540309 0.171045
0.720066 0.529601 0.168368
0.837387 0.520851 0.165546
0.947408 0.514110 0.169740
1.008486 0.517609 0.216270
1.116531 0.516549 0.216270
1.228187 0.516947 0.216270
1.339842 0.517236 0.216269
1.451498 0.517453 0.216269
1.563153 0.517618 0.216269
1.674808 0.517748 0.216269
-0.000004 0.633847 0.190934
0.085915 0.652902 0.155738
0.225326 0.649698 0.171345
0.338445 0.646613 0.167979
0.459460 0.643261 0.164476
0.583674 0.639792 0.160997
0.709373 0.636274 0.157597
0.826708 0.626085 0.155196
0.941015 0.617232 0.155974
1.008486 0.616349 0.216269
1.116530 0.615006 0.216269
1.228186 0.615510 0.216269
1.339842 0.615877 0.216269
1.451497 0.616151 0.216269
1.563153 0.616361 0.216268
1.674808 0.616525 0.216268
-0.000005 0.728926 0.188206
0.079463 0.750619 0.146593
0.215079 0.748862 0.161048
0.325900 0.745740 0.158045
0.444973 0.742375 0.154926
0.567354 0.738923 0.151838
0.691236 0.735451 0.148828
0.815829 0.731993 0.145916
0.931843 0.721781 0.143883
1.008485 0.715904 0.216269
1.116530 0.714290 0.216269
1.228186 0.714896 0.216268
1.339841 0.715337 0.216268
1.451497 0.715666 0.216268
1.563152 0.715918 0.216268
1.674807 0.716115 0.216268
-0.000005 0.823211 0.185981
0.074098 0.847103 0.138963
0.205761 0.846851 0.151797
0.314505 0.843734 0.149156
0.431809 0.840390 0.146407
0.552536 0.836977 0.143681
0.674804 0.833562 0.141025
0.797795 0.830175 0.138454
0.921105 0.826834 0.135973
1.008484 0.815946 0.216268
1.116529 0.814068 0.216268
1.228185 0.814773 0.216268
1.339841 0.815286 0.216268
1.451496 0.815670 0.216267
1.563151 0.815963 0.216267
1.674806 0.816192 0.216267
-0.000006 0.916301 0.184010
0.069607 0.942037 0.132452
0.197449 0.943236 0.143623
0.304168 0.940161 0.141308
0.419740 0.936867 0.138887
0.538867 0.933514 0.136482
0.659593 0.930169 0.134133
0.781071 0.926859 0.131857
0.902885 0.923601 0.129658
1.008484 0.916299 0.216268
1.116528 0.914161 0.216267
1.228184 0.914964 0.216267
1.339840 0.915548 0.216267
1.451495 0.915985 0.216267
1.563151 0.916319 0.216267
1.674806 0.916580 0.216266
-0.000006 1.014469 0.183351
0.135919 1.014469 0.191669
0.263391 1.014468 0.216268
0.358524 1.014468 0.216268
0.461814 1.014468 0.216268
0.568515 1.014468 0.216268
0.676877 1.014467 0.216268
0.786150 1.014467 0.216267
0.895967 1.014467 0.216267
1.006131 1.014467 0.216267
1.116528 1.014467 0.216267
1.228184 1.015366 0.216267
1.339839 1.016020 0.216266
1.451495 1.016509 0.216266
1.563150 1.016883 0.216266
1.674805 1.017175 0.216266
-0.000007 1.115918 0.183350
0.135918 1.115918 0.191697
0.263390 1.115918 0.216268
0.358695 1.115917 0.216267
0.462126 1.115917 0.216267
0.568953 1.115917 0.216267
0.677432 1.115917 0.216267
0.786817 1.115917 0.216267
0.896743 1.115916 0.216267
1.007014 1.115916 0.216266
1.117517 1.115916 0.216266
1.228183 1.115916 0.216266
1.339839 1.116639 0.216266
1.451494 1.117180 0.216266
1.563149 1.117594 0.216265
1.674805 1.117917 0.216265
-0.000008 1.217367 0.183350
0.135918 1.217367 0.191718
0.263390 1.217366 0.216267
0.358819 1.217366 0.216267
0.462353 1.217366 0.216267
0.569271 1.217366 0.216267
0.677835 1.217366 0.216266
0.787302 1.217366 0.216266
0.897307 1.217365 0.216266
1.007656 1.217365 0.216266
1.118237 1.217365 0.216266
1.228979 1.217365 0.216265
1.339838 1.217364 0.216265
1.451494 1.217957 0.216265
1.563149 1.218410 0.216265
1.674804 1.218765 0.216264
-0.000008 1.318816 0.183350
0.135917 1.318815 0.191733
0.263389 1.318815 0.216266
0.358912 1.318815 0.216266
0.462523 1.318815 0.216266
0.569508 1.318815 0.216266
0.678136 1.318815 0.216266
0.787664 1.318814 0.216265
0.897729 1.318814 0.216265
1.008136 1.318814 0.216265
1.118774 1.318814 0.216265
1.229574 1.318813 0.216265
1.340490 1.318813 0.216264
1.451493 1.318813 0.216264
1.563148 1.319306 0.216264
1.674803 1.319691 0.216264
-0.000009 1.420264 0.183349
0.135916 1.420264 0.191745
0.263388 1.420264 0.216266
0.358983 1.420264 0.216266
0.462653 1.420263 0.216265
0.569690 1.420263 0.216265
0.678367 1.420263 0.216265
0.787941 1.420263 0.216265
0.898051 1.420263 0.216265
1.008504 1.420262 0.216264
1.119186 1.420262 0.216264
1.230029 1.420262 0.216264
1.340989 1.420262 0.216264
1.452035 1.420262 0.216264
1.563148 1.420261 0.216263
1.674803 1.420677 0.216263
-0.000009 1.521713 0.183349
0.135916 1.521713 0.191754
0.263388 1.521712 0.216265
0.359038 1.521712 0.216265
0.462754 1.521712 0.216265
0.569832 1.521712 0.216265
0.678547 1.521712 0.216264
0.788157 1.521711 0.216264
0.898303 1.521711 0.216264
1.008790 1.521711 0.216264
1.119507 1.521711 0.216264
1.230384 1.521711 0.216263
1.341378 1.521710 0.216263
1.452458 1.521710 0.216263
1.563604 1.521710 0.216263
1.674802 1.521710 0.216263
-0.000000 -0.000000 0.310914
0.126218 -0.000000 0.310913
0.252437 -0.000001 0.310913
0.378656 -0.000001 0.310913
0.487190 -0.000001 0.300022
0.592786 -0.000001 0.292040
0.697619 -0.000001 0.286405
0.802263 -0.000002 0.282314
0.906034 -0.000002 0.278977
1.008489 -0.000002 0.276021
1.116534 -0.000002 0.275033
1.228190 -0.000002 0.275034
1.339846 -0.000003 0.275034
1.451501 -0.000003 0.275034
1.563156 -0.000003 0.275034
1.674811 -0.000003 0.275034
-0.000001 0.114680 0.310913
0.135414 0.121300 0.334200
0.267259 0.117857 0.330756
0.404137 0.114282 0.327182
0.524385 0.111237 0.313344
0.641790 0.108116 0.302542
0.761767 0.103958 0.294242
0.874824 0.101838 0.286917
0.961710 0.107118 0.281417
1.008489 0.123498 0.280500
1.116533 0.123498 0.279672
1.228189 0.123497 0.279723
1.339845 0.123497 0.279761
1.451500 0.123497 0.279789
1.563156 0.123497 0.279811
1.674811 0.123497 0.279828
-0.000002 0.229361 0.310912
0.124890 0.233697 0.323675
0.265271 0.237920 0.319249
0.392871 0.234587 0.315916
0.513076 0.231498 0.307174
0.630015 0.228481 0.299997
0.748358 0.224830 0.293799
0.865364 0.221509 0.288405
0.958606 0.224596 0.287239
1.008488 0.239317 0.294761
1.116532 0.239317 0.294385
1.228189 0.239317 0.294526
1.339844 0.239317 0.294628
1.451499 0.239317 0.294705
1.563155 0.239316 0.294763
1.674810 0.239316 0.294809
-0.000002 0.344042 0.310912
0.112914 0.350687 0.312836
0.255085 0.346698 0.309063
0.382685 0.343366 0.305730
0.502841 0.340228 0.302592
0.619745 0.337174 0.299539
0.736242 0.334029 0.296342
0.855427 0.330130 0.292150
0.955079 0.331132 0.294350
1.008487 0.344040 0.310910
1.116532 0.344040 0.310910
1.228188 0.344040 0.310909
1.339844 0.344039 0.310909
1.451499 0.344039 0.310909
1.563154 0.344039 0.310909
1.674809 0.344039 0.310909
-0.000003 0.442654 0.300020
0.102002 0.453712 0.291757
0.245542 0.449179 0.293867
0.373093 0.445798 0.296138
0.493249 0.442659 0.293000
0.610476 0.436152 0.290271
0.726763 0.430676 0.287468
0.845799 0.425125 0.282657
0.951380 0.422745 0.285389
1.008487 0.432141 0.310909
1.116531 0.431904 0.310909
1.228187 0.432237 0.310909
1.339843 0.432476 0.310909
1.451498 0.432653 0.310908
1.563154 0.432788 0.310908
1.674809 0.432892 0.310908
-0.000003 0.538598 0.292038
0.092833 0.553453 0.274191
0.236246 0.548875 0.280411
0.363761 0.545457 0.286806
0.479865 0.542425 0.283774
0.600821 0.539266 0.280615
0.717296 0.531778 0.278001
0.834837 0.525160 0.273714
0.946493 0.519865 0.274483
1.008486 0.525444 0.310909
1.116531 0.525008 0.310908
1.228187 0.525621 0.310908
1.339842 0.526061 0.310908
1.451498 0.526387 0.310908
1.563153 0.526634 0.310908
1.674808 0.526826 0.310907
-0.000004 0.633847 0.286403
0.085228 0.651892 0.260089
0.226140 0.648171 0.267493
0.354496 0.644396 0.277541
0.467684 0.641466 0.274450
0.586307 0.638395 0.271013
0.707839 0.635203 0.267359
0.824583 0.627410 0.264309
0.940021 0.620157 0.261906
1.008486 0.621422 0.310908
