Firefly/Assets/ColorGrading/LUTMaybe.cube
LUT_3D_SIZE 6
0.000000 0.000000 0.000000
0.378656 -0.000001 -0.000001
0.697619 -0.000001 -0.000001
1.008490 -0.000002 -0.000002
1.339846 -0.000002 -0.000002
1.674812 -0.000003 -0.000003
-0.000002 0.344042 -0.000002
0.378654 0.344041 -0.000003
0.697617 0.316922 -0.000003
1.008488 0.305432 -0.000004
1.339844 0.304339 -0.000004
1.674810 0.304339 -0.000005
-0.000004 0.633848 -0.000004
0.348805 0.633847 -0.000005
0.697615 0.633846 -0.000005
1.008486 0.610865 -0.000006
1.339842 0.608681 -0.000006
1.674808 0.608682 -0.000007
-0.000006 0.916301 -0.000006
0.336157 0.916300 -0.000006
0.672321 0.916300 -0.000007
1.008484 0.916299 -0.000007
1.339840 0.913023 -0.000008
1.674806 0.913025 -0.000009
-0.000007 1.217367 -0.000007
0.334954 1.217366 -0.000008
0.669915 1.217366 -0.000009
1.004877 1.217365 -0.000009
1.339838 1.217365 -0.000010
1.674804 1.217367 -0.000011
-0.000009 1.521713 -0.000009
0.334953 1.521712 -0.000010
0.669915 1.521712 -0.000011
1.004878 1.521711 -0.000011
1.339840 1.521711 -0.000012
1.674802 1.521710 -0.000012
-0.000000 -0.000000 0.310914
0.378656 -0.000001 0.310913
0.697619 -0.000001 0.286405
1.008489 -0.000002 0.276021
1.339846 -0.000003 0.275034
1.674811 -0.000003 0.275034
-0.000002 0.344042 0.310912
0.382685 0.343366 0.305730
0.736242 0.334029 0.296342
1.008487 0.344040 0.310910
1.339844 0.344039 0.310909
1.674809 0.344039 0.310909
-0.000004 0.633847 0.286403
0.354496 0.644396 0.277541
0.707839 0.635203 0.267359
1.008486 0.621422 0.310908
1.339842 0.622289 0.310907
1.674808 0.623364 0.310907
-0.000006 0.916301 0.276017
0.323155 0.939399 0.245509
0.663525 0.929950 0.235805
1.008484 0.916299 0.310906
1.339840 0.917825 0.310906
1.674806 0.919716 0.310905
-0.000008 1.217367 0.275029
0.378648 1.217366 0.310905
0.684893 1.217366 0.310905
1.010162 1.217365 0.310904
1.339838 1.217364 0.310904
1.674804 1.220002 0.310903
-0.000010 1.521713 0.275028
0.378646 1.521712 0.310904
0.686074 1.521711 0.310903
1.012242 1.521711 0.310902
1.342739 1.521710 0.310902
1.674802 1.521710 0.310901
-0.000000 -0.000000 0.572814
0.348809 -0.000001 0.572813
0.697618 -0.000002 0.572812
1.008489 -0.000002 0.552044
1.339845 -0.000003 0.550070
1.674811 -0.000003 0.550071
-0.000002 0.316923 0.572812
0.380113 0.340794 0.600674
0.733385 0.331518 0.591533
1.008487 0.344040 0.561582
1.339843 0.344039 0.562366
1.674809 0.344039 0.563337
-0.000004 0.633847 0.572810
0.351925 0.641824 0.572486
0.705042 0.632602 0.563263
1.008485 0.633845 0.572808
1.339841 0.633845 0.572807
1.674807 0.633844 0.572807
-0.000006 0.916301 0.552040
0.320332 0.936815 0.530084
0.677507 0.926024 0.535677
1.008484 0.916299 0.572806
1.339840 0.921992 0.572805
1.674806 0.924586 0.572805
-0.000008 1.217367 0.550065
0.378648 1.217366 0.562362
0.697611 1.217365 0.572805
1.014748 1.217365 0.572804
1.339838 1.217364 0.572804
1.674804 1.221931 0.572803
-0.000010 1.521713 0.550065
0.378646 1.521712 0.563332
0.697609 1.521711 0.572803
1.017602 1.521711 0.572802
1.344863 1.521710 0.572802
1.674802 1.521710 0.572801
-0.000001 -0.000001 0.828069
0.336163 -0.000001 0.828068
0.672326 -0.000002 0.828068
1.008489 -0.000002 0.828067
1.339845 -0.000003 0.825106
1.674811 -0.000004 0.825108
-0.000002 0.305433 0.828067
0.377578 0.338128 0.889805
0.717451 0.328602 0.882329
1.008487 0.344040 0.828065
1.339843 0.344039 0.829444
1.674809 0.344038 0.831153
-0.000004 0.610867 0.828065
0.348679 0.626760 0.863455
0.702620 0.630031 0.851112
1.008485 0.633845 0.828063
1.339841 0.633845 0.833208
1.674807 0.633844 0.835552
-0.000006 0.916300 0.828063
0.317911 0.933878 0.832788
0.675062 0.923488 0.823252
1.008484 0.916299 0.828062
1.339840 0.916298 0.828061
1.674805 0.916297 0.828060
-0.000008 1.217367 0.825101
0.378648 1.217366 0.829441
0.697611 1.217365 0.833205
1.008482 1.217365 0.828060
1.339838 1.217364 0.828059
1.674804 1.218653 0.828058
-0.000010 1.521712 0.825102
0.378646 1.521712 0.831148
0.697609 1.521711 0.835549
1.008480 1.521711 0.828058
1.341255 1.521710 0.828057
1.674802 1.521709 0.828057
-0.000001 -0.000001 1.100145
0.334961 -0.000001 1.100144
0.669922 -0.000002 1.100144
1.004884 -0.000003 1.100143
1.339845 -0.000003 1.100143
1.674811 -0.000004 1.100145
-0.000003 0.304341 1.100143
0.378653 0.344041 1.100142
0.684898 0.344040 1.100142
1.010167 0.344039 1.100141
1.339843 0.344039 1.100140
1.674809 0.344038 1.102524
-0.000004 0.608683 1.100141
0.378651 0.622290 1.100140
0.697614 0.633846 1.100140
1.014751 0.633845 1.100139
1.339841 0.633844 1.100139
1.674807 0.633844 1.104266
-0.000006 0.913025 1.100139
0.378650 0.917826 1.100139
0.697612 0.921992 1.100138
1.008483 0.916298 1.100137
1.339839 0.916298 1.100137
1.674805 0.916297 1.101302
-0.000008 1.217366 1.100138
0.378648 1.217366 1.100137
0.697611 1.217365 1.100136
1.008482 1.217365 1.100136
1.339838 1.217364 1.100135
1.674803 1.217363 1.100134
-0.000010 1.521712 1.100139
0.378646 1.521712 1.102519
0.697609 1.521711 1.104262
1.008480 1.521710 1.101299
1.339836 1.521710 1.100133
1.674802 1.521709 1.100132
-0.000001 -0.000001 1.375185
0.334961 -0.000001 1.375184
0.669924 -0.000002 1.375184
1.004886 -0.000003 1.375183
1.339849 -0.000003 1.375182
1.674811 -0.000004 1.375182
-0.000003 0.304342 1.375183
0.378653 0.344040 1.375182
0.686081 0.344040 1.375182
1.012249 0.344039 1.375181
1.342746 0.344039 1.375180
1.674809 0.344038 1.375180
-0.000005 0.608684 1.375181
0.378651 0.623366 1.375180
0.697614 0.633845 1.375180
1.017607 0.633845 1.375179
1.344868 0.633844 1.375179
1.674807 0.633844 1.375178
-0.000006 0.913027 1.375179
0.378649 0.919717 1.375179
0.697612 0.924587 1.375178
1.008483 0.916298 1.375177
1.341259 0.916298 1.375177
1.674805 0.916297 1.375176
-0.000008 1.217369 1.375177
0.378648 1.220003 1.375177
0.697610 1.221932 1.375176
1.008481 1.218654 1.375176
1.339837 1.217364 1.375175
1.674803 1.217363 1.375174
-0.000010 1.521712 1.375176
0.378646 1.521711 1.375175
0.697609 1.521711 1.375174
1.008479 1.521710 1.375174
1.339836 1.521710 1.375173
1.674801 1.521709 1.375172
